X:1
T:Title
%%score 1 { 2 | 3 }
L:1/8
Q:1/4=90
M:4/4
K:E
V:1 treble nm="Grand Piano, Soprano"
V:2 bass nm="Choir Pad, Zehr, 12.12.12.12 D"
V:3 bass 
V:1
 [B,E][EG][EG][EG] [EG][EA][EG][DF] | [CE] [DF]2 [CE]- [CE] C3 | %2
w: By~Angela~K.~Zehr,~harm.~&~arr.~by~N.~E.~M. * * * * * * *||
 [CE][DF][DF][DF] [DF][EG][DF][CE] | [B,D] [CE]2 [CE]- [CE] [EG]3 | %4
w: ||
 [FA][GB][GB][GB] [GB][FA][EG][CE] | [CE] [DF]2 [EG]- [EG] [EA]3 | [EA][EA][FA][EG] [DF][DG][DF]E | %7
w: |||
 [DF][EG][DF][EG] [FA] [GB]3 | [B,E][EA][EA][EG] [FA][GB][FA]E | [FA] [EG]2 [FA]- [FA] [GB]3 | %10
w: |||
 [B,E][B,B][CB][DB] [EB][Fc][GB][CE] | [CE] [EA]2 [EB]- [EB] [Ec]3 | %12
w: ||
 [Ec][Ge][Ge][Fd] [Ec][GB][GB][EG] | [EG] [EA]2 [EB]- [EB] [Ec]3 | [FA][EG][EG][FG] [EA][DG][DF]E | %15
w: |||
 [DF] [EG]2 [DF]- [DF] [B,E]3- | [B,E]4 z4 |] %17
w: ||
V:2
 G,E,G,B, B,CB,A, | G, A,2 A,- A, A,3 | A,A,A,A, A,B,B,B, | B, A,2[K:treble] C- C B,3 | %4
 B,EED DC[K:bass]B,A, | A, A,2 B,- B,[K:treble] C3 | CCCB,[K:bass] B,B,B,B, | %7
 B, B,2 B,- B,[K:treble] E3 | G,CCC CDCC | C[K:bass] B,2 B,- B, E3 | G,G,G,G, G,A,A,A, | %11
 A, A,2 G,- G, A,3 | A,B,B,B, B,[K:treble]EEC | C C2[K:bass] B,- B, A,3 | F,E,G,B, CB,B,B, | %15
 B, C2 B,- B, G,3- | G,4 z4 |] %17
V:3
 .E,2 E,E, E,E,E,E, | E, A,,2 A,,- A,, A,,3 | A,,B,,B,,B,, B,,B,,B,,B,, | B,, C,2 A,,- A,, E,3 | %4
 E,E,E,B,, B,,C,B,,A,, | C, B,,2 B,,- B,, A,,3 | A,,A,,A,,B,, B,,B,,B,,B,, | %7
 B,, B,,2 B,,- B,, E,3 | E,C,C,C, C,B,,B,,A,, | A,, B,,2 B,,- B,, E,3 | E,E,E,E, E,F,E,E, | %11
 C, A,,2 B,,- B,, A,,3 | A,,E,E,E, E,E,E,E, | E, F,2 G,- G, z z2 | z2 E,D, C,B,,B,,B,, | %15
 B,, C,2 B,,- B,, E,3- | E,4 z4 |] %17

